X:333
T:Honourable Peace, An
R:Reel
B:The Athole Collection
M:C|
L:1/8
K:E Minor
F|E2 BG E2 B,E|D2 FD AFDF|E2 BG E2 GB|eBdA BE E:|
F|E2 BA Bdef|dBAd FDAF|E2 BA Bdeg|gdAF BEEF|
E2 BA Bdef|dBAd FADF|GBEF GABg|f^d Bd eEE||

